www/assets/icons/library_music.svg

<svg width="24" height="24" viewBox="0 0 24 24" xmlns="http://www.w3.org/2000/svg" fill='currentColor'><path d="M20 2H8C6.9 2 6 2.9 6 4V16C6 17.1 6.9 18 8 18H20C21.1 18 22 17.1 22 16V4C22 2.9 21.1 2 20 2ZM18 7H15V12.5C15 13.88 13.88 15 12.5 15C11.12 15 10 13.88 10 12.5C10 11.12 11.12 10 12.5 10C13.07 10 13.58 10.19 14 10.51V5H18V7ZM4 6H2V20C2 21.1 2.9 22 4 22H18V20H4V6Z"/></svg>

<svg xmlns="http://www.w3.org/2000/svg" width="24" height="24" viewBox="0 0 24 24" fill='currentColor'><path d="M20 2H8c-1.1 0-2 .9-2 2v12c0 1.1.9 2 2 2h12c1.1 0 2-.9 2-2V4c0-1.1-.9-2-2-2m-2 5h-3v5.5a2.5 2.5 0 0 1-5 0 2.5 2.5 0 0 1 2.5-2.5c.57 0 1.08.19 1.5.51V5h4zM4 6H2v14c0 1.1.9 2 2 2h14v-2H4z"/></svg>
